svgs/thin/sliders-simple.svg

<svg xmlns="http://www.w3.org/2000/svg" viewBox="0 0 512 512"><!--! Font Awesome Pro 6.5.1 by @fontawesome - https://fontawesome.com License - https://fontawesome.com/license (Commercial License) Copyright 2023 Fonticons, Inc. --><path d="M80 304a64 64 0 1 0 0 128 64 64 0 1 0 0-128zm79.6 56L504 360c4.4 0 8 3.6 8 8s-3.6 8-8 8l-344.4 0c-4 40.4-38.1 72-79.6 72c-44.2 0-80-35.8-80-80s35.8-80 80-80c41.5 0 75.6 31.6 79.6 72zM368 144a64 64 0 1 0 128 0 64 64 0 1 0 -128 0zm-15.6-8c4-40.4 38.1-72 79.6-72c44.2 0 80 35.8 80 80s-35.8 80-80 80c-41.5 0-75.6-31.6-79.6-72L8 152c-4.4 0-8-3.6-8-8s3.6-8 8-8l344.4 0z"/></svg>

<svg xmlns="http://www.w3.org/2000/svg" viewBox="0 0 512 512"><!--! Font Awesome Pro 6.1.1 by @fontawesome - https://fontawesome.com License - https://fontawesome.com/license (Commercial License) Copyright 2022 Fonticons, Inc. --><path d="M504 360C508.4 360 512 363.6 512 368C512 372.4 508.4 376 504 376H159.6C155.6 416.4 121.5 448 80 448C35.82 448 0 412.2 0 368C0 323.8 35.82 288 80 288C121.5 288 155.6 319.6 159.6 360H504zM16 368C16 403.3 44.65 432 80 432C115.3 432 144 403.3 144 368C144 332.7 115.3 304 80 304C44.65 304 16 332.7 16 368zM352.4 136C356.4 95.57 390.5 64 432 64C476.2 64 512 99.82 512 144C512 188.2 476.2 224 432 224C390.5 224 356.4 192.4 352.4 152H8C3.582 152 0 148.4 0 144C0 139.6 3.582 136 8 136H352.4zM432 208C467.3 208 496 179.3 496 144C496 108.7 467.3 80 432 80C396.7 80 368 108.7 368 144C368 179.3 396.7 208 432 208z"/></svg>
